X: 1
T:The Whistling Postman  "CYMRU"
M:6/8
L:1/8
Q:80
C:Trad.
S:Jig
K:HP
|: {gfg}f2{g}edB|
{g}A{d}A{e}A{g}dB{G}A|
{g}G{d}B{G}B{g}GBd|  !
{g}A{d}B{e}A{g}ABd| |
{g}ef{e}f{g}edB|
{g}A{d}A{e}A{g}dB{G}A|  !
{g}G{d}B{G}B{g}c{e}B{d}c|
{g}ded{gdc}d2e:| |:
f{g}efadf|  !
g{a}B{G}B{g}GB{G}B|
{g}fdB{g}Adf|
{g}ec{G}A{g}A{d}ce|1 |  !
f{g}efadf|
g{a}B{G}Bg{a}B{G}B|
{g}GBd{g}Ac{G}c|  !
{g}ded{gdc}d2e:|2 |
{gfg}f2{g}edB|
{g}A{d}A{e}A{g}dB{G}A|  !
{g}G{d}B{G}B{g}c{e}B{d}c|
{g}ded{gdc}d2|
